X: 28685
T: Mwynen Cynwyd
R: jig
M: 6/8
K: Gmajor
|:d|B(3GGG G2G|GBd dcB|e(3AAA A2A|cde edc|
B(3GGG G2G|GBd dcB|cBc Adc|BAB G2:|
|:c|e2g e2g|e2g eBe|d2g d2g|d2g dBd|
e(3AAA A2A|cde edc|=fed edc|de=f ed:|

